X: 303
T: Shandan huakai
%%abc-version 2.0
%%abcx-abcm2ps-target-version 5.9.1 (29 Sep 2008)
%%abc-creator hum2abc beta
%%abcx-conversion-date 2013/10/02 07:52:29
%%abc-edited-by Helmut Schaffrath
%%humdrum-veritas 3802975369
%%humdrum-veritas-data 1375707718
%%continueall 1
%%barnumbers 0
L: 1/8
M: 2/4
K: G
d Bd2 [I:setbarnb 1]| 
Bd2g | 
e d E G | 
A B d B | 
d> g e B | 
A d A G | 
ED2G | 
A d A3/ B/ | 
A4 | 
A Bd2 | 
g ed2 | 
B A/ B/d2 | 
G> B A/ B/ A/ B/ | 
D3E | 
G> E G3/ E/ | 
G3A | 
B/ B/ B/ B/ A B/ A/ | 
G> E D E/ G/ | 
D4 |]  



